icons/cucumber.svg

<svg width="16" height="16" viewBox="0 0 16 16" fill="none" xmlns="http://www.w3.org/2000/svg">
<path fill-rule="evenodd" clip-rule="evenodd" d="M7.90647 14.4845C7.5781 14.5742 7.24408 14.645 6.90647 14.6957V12.9678C6.09426 12.8129 5.32246 12.4929 4.63904 12.0275C3.95562 11.562 3.3751 10.9612 2.93344 10.2622C2.49178 9.56321 2.19843 8.78093 2.07153 7.96388C1.94464 7.14683 1.98689 6.31243 2.19574 5.5124C2.40459 4.71236 2.77557 3.96376 3.28564 3.31299C3.7957 2.66222 4.43399 2.12316 5.16096 1.72923C5.88793 1.3353 6.68814 1.09489 7.51185 1.02292C8.33556 0.950943 9.16526 1.04893 9.94954 1.3108C10.0329 1.33512 10.1149 1.36625 10.1963 1.39711L10.1964 1.39713C10.2221 1.40689 10.2478 1.41662 10.2734 1.4261L10.2784 1.42809L10.2784 1.42809C10.3155 1.44263 10.3521 1.45695 10.3889 1.4724C10.5105 1.52136 10.6302 1.57506 10.7476 1.63338C10.8619 1.69057 10.9738 1.752 11.0832 1.81768C12.9957 2.94142 14.1306 5.25386 13.988 7.51907C13.7707 10.9335 11.1072 13.6096 7.90647 14.4845ZM6.75714 3.11471C6.65237 3.07315 6.53935 3.05891 6.42797 3.07321C6.24646 3.08948 6.0771 3.17407 5.95206 3.31092C5.82703 3.44777 5.755 3.6273 5.74982 3.81537C5.75658 3.99802 5.80156 4.177 5.88156 4.34005C6.03985 4.63766 6.25559 4.89857 6.51543 5.10664C6.77527 5.3147 7.07367 5.46549 7.39221 5.54969C7.69465 5.10142 7.5497 4.30244 7.30494 3.74523C7.23575 3.58641 7.14249 3.43997 7.02868 3.31145C6.95521 3.22383 6.86191 3.15626 6.75714 3.11471ZM4.73361 6.5066C4.57128 6.42519 4.41655 6.32852 4.2714 6.2178C4.16139 6.13171 4.07985 6.01262 4.03785 5.87684C3.99585 5.74105 3.99542 5.59518 4.03674 5.45917C4.07805 5.32316 4.15904 5.20365 4.26863 5.11696C4.37821 5.03027 4.51109 4.98064 4.64902 4.97486C4.6893 4.97132 4.72974 4.97132 4.77001 4.97486C4.95879 4.97799 5.14503 5.02078 5.31726 5.10064C5.60627 5.2258 5.86768 5.41011 6.08584 5.64245C6.30399 5.8748 6.47436 6.15036 6.58658 6.45252C6.3002 6.60044 5.98596 6.68193 5.66588 6.69127C5.34581 6.70061 5.02762 6.63758 4.73361 6.5066ZM5.5519 7.43928C5.90067 7.42123 6.34672 7.39815 6.58621 7.56302C6.50842 8.08339 5.86181 8.74954 5.31689 8.99249C5.14604 9.07658 4.9589 9.11958 4.76964 9.11827C4.62356 9.13592 4.4759 9.10488 4.34811 9.02967C4.22033 8.95445 4.11916 8.83901 4.05943 8.70022C3.99971 8.56142 3.98449 8.40654 4.01608 8.2582C4.04767 8.10986 4.12439 7.97584 4.235 7.87572C4.36824 7.74763 4.52557 7.6492 4.6972 7.58653C4.89727 7.49863 5.112 7.45179 5.3294 7.4486C5.39587 7.44735 5.47129 7.44345 5.5519 7.43928ZM6.7349 8.88546C6.97766 8.64946 7.26389 8.46624 7.57658 8.34672C7.88774 8.82791 7.79518 9.76325 7.55953 10.2856C7.4858 10.453 7.39688 10.6128 7.29392 10.7629C7.19381 10.8735 7.06352 10.9502 6.92028 10.9826C6.77704 11.0151 6.62759 11.0019 6.49181 10.9447C6.35602 10.8875 6.24025 10.789 6.15986 10.6624C6.07947 10.5357 6.03825 10.3868 6.04165 10.2354C6.04494 10.0566 6.08656 9.88078 6.16348 9.72055C6.29785 9.40545 6.49214 9.12147 6.7349 8.88546ZM9.37776 5.07324C9.13575 5.28714 8.85258 5.44566 8.54693 5.53833L8.5473 5.53637C8.19705 5.09633 8.28127 4.2946 8.51654 3.73269C8.5908 3.56516 8.68041 3.40535 8.7841 3.25542C8.85758 3.16533 8.95142 3.0953 9.05731 3.0515C9.16319 3.00769 9.2779 2.99146 9.39129 3.00424C9.57854 3.01643 9.75393 3.10294 9.88082 3.24565C10.0077 3.38836 10.0762 3.57622 10.072 3.76992C10.0689 3.95267 10.0276 4.13257 9.95095 4.29735C9.81511 4.59489 9.61977 4.85933 9.37776 5.07324ZM10.0219 9.75855C10.0987 9.92315 10.1403 10.1029 10.1437 10.2856C10.1828 10.8883 9.28306 11.2448 8.85312 10.7629C8.7424 10.6321 8.65274 10.4837 8.58751 10.3236C8.46526 10.0293 8.4095 9.71022 8.42436 9.39039C8.43922 9.07056 8.52433 8.75842 8.6733 8.4776C8.97322 8.58012 9.24854 8.74736 9.48106 8.96821C9.71358 9.18907 9.89797 9.45847 10.0219 9.75855ZM11.2757 7.55049C11.4376 7.62673 11.5922 7.71856 11.7375 7.82477C11.8551 7.91924 11.9384 8.05082 11.9769 8.19945C12.0153 8.34808 12.0056 8.50561 11.9493 8.64804C11.893 8.79047 11.7932 8.90999 11.665 8.98838C11.5368 9.06676 11.3873 9.09972 11.2393 9.08222C11.0505 9.07913 10.8644 9.03647 10.6921 8.95683C10.4056 8.83631 10.1461 8.65638 9.92964 8.42816C9.71321 8.19995 9.54442 7.9283 9.43372 7.63003C9.81227 7.45173 10.2288 7.37683 10.6435 7.41255C10.8609 7.41583 11.0756 7.46268 11.2757 7.55049Z" fill="#2FAD62"/>
</svg>

<svg xmlns="http://www.w3.org/2000/svg" width="16" height="16" fill="none"><path fill="#2FAD62" fill-rule="evenodd" d="M7.906 14.485c-.328.09-.662.16-1 .21v-1.727A6.038 6.038 0 1 1 9.95 1.31c.083.024.165.055.246.086l.077.03.005.001.11.044a5.024 5.024 0 0 1 .695.346c1.913 1.123 3.048 3.436 2.905 5.701-.217 3.415-2.88 6.09-6.082 6.966ZM6.757 3.115a.663.663 0 0 0-.329-.042.734.734 0 0 0-.476.238.78.78 0 0 0-.202.504c.007.183.052.362.132.525.158.298.374.559.633.767.26.208.559.358.877.443.303-.449.158-1.248-.087-1.805a1.645 1.645 0 0 0-.276-.434.684.684 0 0 0-.272-.196ZM4.734 6.507a2.922 2.922 0 0 1-.463-.29.692.692 0 0 1-.233-.34.714.714 0 0 1-.001-.418.692.692 0 0 1 .232-.342.657.657 0 0 1 .38-.142.69.69 0 0 1 .121 0c.189.003.375.046.547.126.29.125.55.31.769.541.218.233.388.508.5.81a2.141 2.141 0 0 1-1.852.055Zm.818.932c.349-.018.795-.04 1.034.124-.078.52-.724 1.187-1.27 1.43a1.22 1.22 0 0 1-.546.125.671.671 0 0 1-.422-.088.705.705 0 0 1-.289-.33.733.733 0 0 1 .176-.824c.133-.128.29-.227.462-.29.2-.087.415-.134.632-.137.067-.002.142-.006.223-.01Zm1.183 1.446c.243-.236.529-.419.842-.538.31.48.218 1.416-.017 1.939a2.935 2.935 0 0 1-.266.477.702.702 0 0 1-.802.182.73.73 0 0 1-.332-.283.766.766 0 0 1-.118-.427c.003-.178.045-.354.121-.514.135-.316.33-.6.572-.836Zm2.643-3.812a2.234 2.234 0 0 1-.831.465v-.002c-.35-.44-.266-1.241-.03-1.803.074-.168.163-.328.267-.478a.675.675 0 0 1 .607-.251.718.718 0 0 1 .49.242c.127.142.195.33.191.524a1.304 1.304 0 0 1-.121.527 2.321 2.321 0 0 1-.573.776Zm.644 4.686c.077.164.118.344.122.527.039.602-.86.959-1.29.477-.112-.13-.201-.28-.266-.44a2.171 2.171 0 0 1 .085-1.845c.3.102.576.27.808.49.233.221.417.49.54.79Zm1.254-2.209c.162.077.316.169.462.275a.727.727 0 0 1 .212.823.7.7 0 0 1-.285.34.665.665 0 0 1-.426.094 1.356 1.356 0 0 1-.547-.125c-.286-.12-.546-.3-.762-.529a2.345 2.345 0 0 1-.496-.798 2.361 2.361 0 0 1 1.21-.217c.217.003.432.05.632.137Z" clip-rule="evenodd"/></svg>
